X:1051
T:BALANCIERES DE LANGUEUX
Z: Yves BELOTTEAU
M:4/4
L:1/8
Q:1/4=60
K:C
|e/2e/2edc edcd|e/2e/2edc eddc2|edce dcde/2e/2|edce ddc2|
c2de f2e2|d3/2c/2de d2c2|c2de f2e2|d3/2c/2de d2c3/2|


